!!!OTL: Hongjun laile jiuqiongren
!!!ARE: Asia, China,ÿSichuan Bazhong
!! II, 235
!!!SCT: C1879
!!!YEM: Copyright 1995, estate of Helmut Schaffrath.
**kern
*ICvox
*Ivox
*M2/4
*k[f#c#]
*D:
{8a
8a
8b
8dd
=1
8b
8a
8b
8dd
=2
[2ee
=3
2ee]}
=4
{8b
8dd
8ee
16ee
16dd
=5
8b
8a
8b
8dd
=6
[2a
=7
2a]}
=8
{8b
8dd
8ee
8ee
=9
4ee
4dd
=10
4b
4a}
=11
{8b
8dd
8ee
16ee
16dd
=12
8b
8a
8b
8dd
=13
[2a
=14
2a]}
==
!!!AGN: Shange
!!!AMT: simple duple
!!!AIN: vox
!!!EED: Helmut Schaffrath
!!!EEV: 1.0
*-
!!!ONB: Tied note syntax fixed by Craig Sapp, 2004/05/03/
